svg/s/CW.svg

<svg width="16" height="12" viewBox="0 0 16 12" fill="none" xmlns="http://www.w3.org/2000/svg">
<g clip-path="url(#clip0_270_55184)">
<rect width="16" height="12" fill="white"/>
<path fill-rule="evenodd" clip-rule="evenodd" d="M0 0V12H16V0H0Z" fill="#2E42A5"/>
<mask id="mask0_270_55184" style="mask-type:luminance" maskUnits="userSpaceOnUse" x="0" y="0" width="16" height="12">
<path fill-rule="evenodd" clip-rule="evenodd" d="M0 0V12H16V0H0Z" fill="white"/>
</mask>
<g mask="url(#mask0_270_55184)">
<path fill-rule="evenodd" clip-rule="evenodd" d="M2.12721 3.07461L1.13279 3.59946L1.61292 2.66526L1 1.98157L1.76167 1.95346L2.12721 1L2.40617 1.95346L3.29748 1.98157L2.65574 2.66526L3.06286 3.59946L2.12721 3.07461Z" fill="#F7FCFF"/>
<path fill-rule="evenodd" clip-rule="evenodd" d="M5.67619 5.53829L4.44888 6.0524L4.93037 4.76409L3.86328 3.89965H5.14193L5.67619 2.5061L6.0839 3.89965H7.36452L6.45451 4.76409L6.90637 6.0524L5.67619 5.53829Z" fill="#F7FCFF"/>
<path fill-rule="evenodd" clip-rule="evenodd" d="M0 7V9H16V7H0Z" fill="#F9E813"/>
</g>
</g>
<defs>
<clipPath id="clip0_270_55184">
<rect width="16" height="12" fill="white"/>
</clipPath>
</defs>
</svg>

<svg width="16" height="12" fill="none" xmlns="http://www.w3.org/2000/svg">
  <mask id="a" maskUnits="userSpaceOnUse" x="0" y="0" width="16" height="12">
    <path fill="#fff" d="M0 0h16v12H0z"/>
  </mask>
  <g mask="url(#a)">
    <path fill-rule="evenodd" clip-rule="evenodd" d="M0 0v12h16V0H0z" fill="#2E42A5"/>
    <mask id="b" maskUnits="userSpaceOnUse" x="0" y="0" width="16" height="12">
      <path fill-rule="evenodd" clip-rule="evenodd" d="M0 0v12h16V0H0z" fill="#fff"/>
    </mask>
    <g mask="url(#b)" fill-rule="evenodd" clip-rule="evenodd">
      <path d="M2.127 3.075l-.994.524.48-.934L1 1.982l.762-.029L2.127 1l.28.953.89.029-.641.683.407.934-.936-.524zm3.549 2.463l-1.227.514.481-1.288L3.863 3.9h1.279l.534-1.394.408 1.394h1.28l-.91.864.452 1.288-1.23-.514z" fill="#F7FCFF"/>
      <path d="M0 7v2h16V7H0z" fill="#F9E813"/>
    </g>
  </g>
</svg>
